<?xml version="1.0" encoding="UTF-8"?>
<map version="1.10" tiledversion="1.11.0" orientation="orthogonal" renderorder="right-down" width="25" height="19" tilewidth="32" tileheight="32" infinite="1" nextlayerid="2" nextobjectid="1">
 <tileset firstgid="1" source="tiles.tsx"/>
 <layer id="1" name="Tile Layer 1" width="25" height="19">
  <data encoding="csv">
   <chunk x="-16" y="-32" width="16" height="16">
0,0,0,0,0,0,0,0,0,0,0,0,0,0,0,0,
0,0,0,0,0,0,0,0,0,0,0,0,0,0,0,0,
0,0,0,0,0,0,0,0,0,0,0,0,0,0,0,0,
0,0,0,0,0,0,0,0,0,0,0,0,0,0,0,0,
0,0,0,0,0,0,0,0,0,0,0,0,0,0,0,0,
0,0,0,0,0,0,0,0,0,0,0,0,0,0,0,0,
0,0,0,0,0,0,0,0,0,0,0,0,0,0,0,0,
0,0,0,0,0,0,0,0,0,0,0,0,0,0,0,0,
0,0,0,0,0,0,0,0,0,0,0,0,0,0,0,0,
0,0,0,0,0,0,0,0,0,0,0,0,0,0,0,0,
0,0,0,0,0,0,0,0,0,0,0,0,0,0,0,0,
8,4,1,1,6,5,3,6,8,2,4,7,6,5,5,4,
4,7,1,2,4,2,6,4,8,8,6,7,2,4,6,8,
1,8,1,6,8,3,6,8,6,8,8,6,7,8,8,6,
6,5,6,6,5,8,5,7,7,4,6,6,2,4,5,5,
2,5,5,6,8,6,6,6,5,6,6,4,1,5,8,5
</chunk>
   <chunk x="0" y="-32" width="16" height="16">
0,0,0,0,0,0,0,0,0,0,0,0,0,0,0,0,
0,0,0,0,0,0,0,0,0,0,0,0,0,0,0,0,
0,0,0,0,0,0,0,0,0,0,0,0,0,0,0,0,
0,0,0,0,0,0,0,0,0,0,0,0,0,0,0,0,
0,0,0,0,0,0,0,0,0,0,0,0,0,0,0,0,
0,0,0,0,0,0,0,0,0,0,0,0,0,0,0,0,
0,0,0,0,0,0,0,0,0,0,0,0,0,0,0,0,
0,0,0,0,0,0,0,0,0,0,0,0,0,0,0,0,
0,0,0,0,0,0,0,0,0,0,0,0,0,0,0,0,
0,0,0,0,0,0,0,0,0,0,0,0,0,0,0,0,
0,0,0,0,0,0,0,0,0,0,0,0,0,0,0,0,
4,7,7,8,8,6,5,8,7,6,8,7,2,5,5,5,
7,4,8,7,4,5,4,8,5,5,8,4,8,8,6,5,
5,8,7,1,6,6,5,4,8,6,1,5,7,7,5,6,
7,2,7,6,7,4,7,5,8,8,6,7,5,1,2,6,
5,5,5,4,8,7,5,8,6,7,1,7,1,6,7,4
</chunk>
   <chunk x="16" y="-32" width="16" height="16">
0,0,0,0,0,0,0,0,0,0,0,0,0,0,0,0,
0,0,0,0,0,0,0,0,0,0,0,0,0,0,0,0,
0,0,0,0,0,0,0,0,0,0,0,0,0,0,0,0,
0,0,0,0,0,0,0,0,0,0,0,0,0,0,0,0,
0,0,0,0,0,0,0,0,0,0,0,0,0,0,0,0,
0,0,0,0,0,0,0,0,0,0,0,0,0,0,0,0,
0,0,0,0,0,0,0,0,0,0,0,0,0,0,0,0,
0,0,0,0,0,0,0,0,0,0,0,0,0,0,0,0,
0,0,0,0,0,0,0,0,0,0,0,0,0,0,0,0,
0,0,0,0,0,0,0,0,0,0,0,0,0,0,0,0,
0,0,0,0,0,0,0,0,0,0,0,0,0,0,0,0,
7,5,4,0,0,0,0,0,0,0,0,0,0,0,0,0,
3,1,4,0,0,0,0,0,0,0,0,0,0,0,0,0,
2,8,8,0,0,0,0,0,0,0,0,0,0,0,0,0,
8,8,5,0,0,0,0,0,0,0,0,0,0,0,0,0,
4,5,6,0,0,0,0,0,0,0,0,0,0,0,0,0
</chunk>
   <chunk x="-16" y="-16" width="16" height="16">
8,6,8,8,8,7,6,6,6,7,2,5,1,8,7,4,
4,12,7,5,5,5,7,8,8,1,2,4,5,8,8,8,
10,10,10,9,9,9,9,9,10,10,10,10,9,10,10,9,
10,9,9,9,10,10,9,9,10,10,9,10,10,9,10,10,
7,4,7,4,8,7,5,4,5,4,8,8,5,8,5,10,
4,7,4,5,8,6,12,5,5,6,4,2,7,6,4,10,
7,8,7,6,1,7,7,5,8,7,8,4,5,8,5,9,
7,8,4,4,4,4,5,7,8,5,5,6,7,8,5,10,
7,1,5,8,7,4,8,5,5,5,7,5,6,6,4,10,
4,8,6,4,6,6,8,7,6,4,5,6,7,7,8,9,
5,6,8,4,7,6,8,5,4,5,7,6,6,6,1,9,
7,7,8,5,4,7,4,8,7,7,1,8,5,7,8,9,
4,6,4,7,5,8,6,4,4,6,5,6,8,7,4,10,
4,6,8,6,6,5,8,6,6,7,6,8,5,3,5,10,
6,5,8,6,7,8,7,7,6,7,4,7,7,5,7,9,
8,5,5,6,5,6,5,5,4,4,7,5,8,1,4,10
</chunk>
   <chunk x="0" y="-16" width="16" height="16">
6,8,7,6,12,8,4,7,8,7,5,7,4,6,8,4,
4,1,8,8,6,8,5,4,1,6,7,7,8,5,4,8,
10,9,9,9,9,10,9,9,10,9,10,9,10,9,9,10,
9,10,10,9,9,10,10,9,10,9,10,10,9,9,9,10,
10,9,11,6,12,4,7,7,5,8,4,6,12,8,4,4,
9,10,7,7,3,5,7,4,4,7,5,1,1,4,8,4,
9,9,1,4,6,7,4,7,7,6,2,7,8,6,5,8,
9,9,1,8,7,6,4,5,5,4,1,5,4,5,4,5,
10,10,5,4,5,4,7,5,5,7,8,3,6,5,2,6,
9,9,2,6,8,4,6,1,8,4,6,5,8,8,8,8,
9,10,6,8,7,7,4,4,8,4,8,5,7,4,4,8,
10,9,4,6,8,8,8,2,5,6,7,7,4,7,5,1,
10,9,8,4,5,8,4,7,5,7,4,6,3,7,7,6,
9,10,7,5,7,7,5,7,8,7,4,5,5,8,8,8,
10,9,5,7,8,4,8,8,6,5,5,7,4,6,7,7,
10,10,6,4,4,4,1,8,4,4,6,6,8,4,4,6
</chunk>
   <chunk x="16" y="-16" width="16" height="16">
7,8,5,0,0,0,0,0,0,0,0,0,0,0,0,0,
2,12,7,0,0,0,0,0,0,0,0,0,0,0,0,0,
9,10,10,0,0,0,0,0,0,0,0,0,0,0,0,0,
9,9,10,0,0,0,0,0,0,0,0,0,0,0,0,0,
2,8,7,0,0,0,0,0,0,0,0,0,0,0,0,0,
8,4,1,0,0,0,0,0,0,0,0,0,0,0,0,0,
6,4,5,0,0,0,0,0,0,0,0,0,0,0,0,0,
6,8,7,0,0,0,0,0,0,0,0,0,0,0,0,0,
7,8,6,0,0,0,0,0,0,0,0,0,0,0,0,0,
5,4,6,0,0,0,0,0,0,0,0,0,0,0,0,0,
5,5,7,0,0,0,0,0,0,0,0,0,0,0,0,0,
1,8,6,0,0,0,0,0,0,0,0,0,0,0,0,0,
4,4,6,0,0,0,0,0,0,0,0,0,0,0,0,0,
8,4,5,0,0,0,0,0,0,0,0,0,0,0,0,0,
5,1,8,0,0,0,0,0,0,0,0,0,0,0,0,0,
6,7,4,0,0,0,0,0,0,0,0,0,0,0,0,0
</chunk>
   <chunk x="-16" y="0" width="16" height="16">
4,6,6,6,4,6,7,5,1,4,5,4,5,7,7,10,
7,6,2,3,8,4,6,4,5,6,5,4,5,8,7,10,
8,7,4,6,4,5,6,2,6,8,5,7,7,7,4,9,
4,8,8,8,6,8,8,3,8,6,6,8,4,6,6,9,
0,0,0,0,0,0,0,0,0,0,0,0,0,0,0,0,
0,0,0,0,0,0,0,0,0,0,0,0,0,0,0,0,
0,0,0,0,0,0,0,0,0,0,0,0,0,0,0,0,
0,0,0,0,0,0,0,0,0,0,0,0,0,0,0,0,
0,0,0,0,0,0,0,0,0,0,0,0,0,0,0,0,
0,0,0,0,0,0,0,0,0,0,0,0,0,0,0,0,
0,0,0,0,0,0,0,0,0,0,0,0,0,0,0,0,
0,0,0,0,0,0,0,0,0,0,0,0,0,0,0,0,
0,0,0,0,0,0,0,0,0,0,0,0,0,0,0,0,
0,0,0,0,0,0,0,0,0,0,0,0,0,0,0,0,
0,0,0,0,0,0,0,0,0,0,0,0,0,0,0,0,
0,0,0,0,0,0,0,0,0,0,0,0,0,0,0,0
</chunk>
   <chunk x="0" y="0" width="16" height="16">
10,9,6,8,8,4,7,1,3,7,5,8,6,4,6,6,
9,10,7,5,1,4,5,5,6,2,6,8,6,4,5,7,
9,10,3,4,7,8,6,2,4,5,1,8,2,1,6,1,
10,9,4,5,8,6,8,5,4,7,6,7,5,4,7,7,
0,0,0,0,0,0,0,0,0,0,0,0,0,0,0,0,
0,0,0,0,0,0,0,0,0,0,0,0,0,0,0,0,
0,0,0,0,0,0,0,0,0,0,0,0,0,0,0,0,
0,0,0,0,0,0,0,0,0,0,0,0,0,0,0,0,
0,0,0,0,0,0,0,0,0,0,0,0,0,0,0,0,
0,0,0,0,0,0,0,0,0,0,0,0,0,0,0,0,
0,0,0,0,0,0,0,0,0,0,0,0,0,0,0,0,
0,0,0,0,0,0,0,0,0,0,0,0,0,0,0,0,
0,0,0,0,0,0,0,0,0,0,0,0,0,0,0,0,
0,0,0,0,0,0,0,0,0,0,0,0,0,0,0,0,
0,0,0,0,0,0,0,0,0,0,0,0,0,0,0,0,
0,0,0,0,0,0,0,0,0,0,0,0,0,0,0,0
</chunk>
   <chunk x="16" y="0" width="16" height="16">
6,8,7,0,0,0,0,0,0,0,0,0,0,0,0,0,
8,4,5,0,0,0,0,0,0,0,0,0,0,0,0,0,
4,7,8,0,0,0,0,0,0,0,0,0,0,0,0,0,
6,5,7,0,0,0,0,0,0,0,0,0,0,0,0,0,
0,0,0,0,0,0,0,0,0,0,0,0,0,0,0,0,
0,0,0,0,0,0,0,0,0,0,0,0,0,0,0,0,
0,0,0,0,0,0,0,0,0,0,0,0,0,0,0,0,
0,0,0,0,0,0,0,0,0,0,0,0,0,0,0,0,
0,0,0,0,0,0,0,0,0,0,0,0,0,0,0,0,
0,0,0,0,0,0,0,0,0,0,0,0,0,0,0,0,
0,0,0,0,0,0,0,0,0,0,0,0,0,0,0,0,
0,0,0,0,0,0,0,0,0,0,0,0,0,0,0,0,
0,0,0,0,0,0,0,0,0,0,0,0,0,0,0,0,
0,0,0,0,0,0,0,0,0,0,0,0,0,0,0,0,
0,0,0,0,0,0,0,0,0,0,0,0,0,0,0,0,
0,0,0,0,0,0,0,0,0,0,0,0,0,0,0,0
</chunk>
  </data>
 </layer>
</map>
